svg/wan.svg

<svg xmlns="http://www.w3.org/2000/svg" viewBox="0 0 24 24"><path d="M12 2a8 8 0 0 0-8 8c0 4.03 3 7.42 7 7.93V19h-1a1 1 0 0 0-1 1H2v2h7a1 1 0 0 0 1 1h4a1 1 0 0 0 1-1h7v-2h-7a1 1 0 0 0-1-1h-1v-1.07c4-.5 7-3.9 7-7.93a8 8 0 0 0-8-8m0 2s.74 1.28 1.26 3h-2.52C11.26 5.28 12 4 12 4m-2.23.43c-.27.5-.68 1.41-1.03 2.57H6.81C7.5 5.84 8.5 4.93 9.77 4.43m4.46.01c1.27.5 2.27 1.4 2.96 2.56h-1.93c-.35-1.16-.76-2.07-1.03-2.56M6.09 9h2.23c-.04.33-.07.66-.07 1s.03.67.07 1H6.09a5.6 5.6 0 0 1 0-2m4.23 0h3.36c.04.33.07.66.07 1s-.03.67-.07 1h-3.36c-.04-.33-.07-.66-.07-1s.03-.67.07-1m5.36 0h2.23a5.6 5.6 0 0 1 0 2h-2.23c.04-.33.07-.66.07-1s-.03-.67-.07-1m-8.87 4h1.93c.35 1.16.76 2.07 1.03 2.56-1.27-.5-2.27-1.4-2.96-2.56m3.93 0h2.52c-.52 1.72-1.26 3-1.26 3s-.74-1.28-1.26-3m4.52 0h1.93c-.69 1.16-1.69 2.07-2.96 2.57.27-.5.68-1.41 1.03-2.57"/></svg>

<?xml version="1.0" encoding="UTF-8"?><!DOCTYPE svg PUBLIC "-//W3C//DTD SVG 1.1//EN" "http://www.w3.org/Graphics/SVG/1.1/DTD/svg11.dtd"><svg xmlns="http://www.w3.org/2000/svg" xmlns:xlink="http://www.w3.org/1999/xlink" version="1.1" id="mdi-wan" width="24" height="24" viewBox="0 0 24 24"><path d="M12,2A8,8 0 0,0 4,10C4,14.03 7,17.42 11,17.93V19H10A1,1 0 0,0 9,20H2V22H9A1,1 0 0,0 10,23H14A1,1 0 0,0 15,22H22V20H15A1,1 0 0,0 14,19H13V17.93C17,17.43 20,14.03 20,10A8,8 0 0,0 12,2M12,4C12,4 12.74,5.28 13.26,7H10.74C11.26,5.28 12,4 12,4M9.77,4.43C9.5,4.93 9.09,5.84 8.74,7H6.81C7.5,5.84 8.5,4.93 9.77,4.43M14.23,4.44C15.5,4.94 16.5,5.84 17.19,7H15.26C14.91,5.84 14.5,4.93 14.23,4.44M6.09,9H8.32C8.28,9.33 8.25,9.66 8.25,10C8.25,10.34 8.28,10.67 8.32,11H6.09C6.03,10.67 6,10.34 6,10C6,9.66 6.03,9.33 6.09,9M10.32,9H13.68C13.72,9.33 13.75,9.66 13.75,10C13.75,10.34 13.72,10.67 13.68,11H10.32C10.28,10.67 10.25,10.34 10.25,10C10.25,9.66 10.28,9.33 10.32,9M15.68,9H17.91C17.97,9.33 18,9.66 18,10C18,10.34 17.97,10.67 17.91,11H15.68C15.72,10.67 15.75,10.34 15.75,10C15.75,9.66 15.72,9.33 15.68,9M6.81,13H8.74C9.09,14.16 9.5,15.07 9.77,15.56C8.5,15.06 7.5,14.16 6.81,13M10.74,13H13.26C12.74,14.72 12,16 12,16C12,16 11.26,14.72 10.74,13M15.26,13H17.19C16.5,14.16 15.5,15.07 14.23,15.57C14.5,15.07 14.91,14.16 15.26,13Z" /></svg>
